picto/family-zone.svg

<svg class="color-immutable" width="24" height="24" viewBox="0 0 24 24" fill="none" xmlns="http://www.w3.org/2000/svg"><g clip-path="url(#a)"><path d="M0 22.5v-21C0 .675.675 0 1.5 0h21c.825 0 1.5.675 1.5 1.5v21c0 .825-.675 1.5-1.5 1.5h-21C.675 24 0 23.325 0 22.5Z" fill="#2D327D"/><path d="M3.411 21h17.177c.27 0 .453-.278.344-.525a9.79 9.79 0 0 0-4.793-4.916.379.379 0 0 0-.342.015 7.825 7.825 0 0 1-3.798.971 7.825 7.825 0 0 1-3.798-.971.373.373 0 0 0-.342-.015 9.79 9.79 0 0 0-4.793 4.916.376.376 0 0 0 .345.525Z" fill="#fff"/><path d="M21 6a3 3 0 0 0-5.393-1.809A7.323 7.323 0 0 0 12 3.256a7.323 7.323 0 0 0-3.607.935 3 3 0 1 0-3.263 4.68 6.001 6.001 0 0 0-.051.774c0 3.529 3.098 6.389 6.921 6.389 3.822 0 6.921-2.86 6.921-6.389 0-.262-.017-.52-.051-.773A3.003 3.003 0 0 0 21 6ZM9.063 10.974a.797.797 0 1 1 0-1.594.797.797 0 0 1 0 1.594Zm3.685 3.051a1.56 1.56 0 0 1-.748-.178 1.56 1.56 0 0 1-.748.178c-.637 0-1.132-.466-1.132-.866a.166.166 0 1 1 .332 0c0 .21.343.534.8.534.218 0 .429-.049.582-.134v-.962c-.434-.056-.764-.327-.764-.653 0-.367.416-.664.93-.664s.93.297.93.664c0 .326-.33.597-.764.653v.962c.153.085.364.134.582.134.456 0 .8-.324.8-.534a.166.166 0 1 1 .332 0c0 .401-.495.866-1.132.866Zm2.189-3.051a.797.797 0 1 1 0-1.594.797.797 0 0 1 0 1.594Z" fill="#fff"/></g><defs><clipPath id="a"><path fill="#fff" d="M0 0h24v24H0z"/></clipPath></defs></svg>

<svg class="color-immutable" width="24" height="24" viewBox="0 0 24 24" fill="none" xmlns="http://www.w3.org/2000/svg"><path d="M0 22.5V1.5C0 0.675 0.675 0 1.5 0H22.5C23.325 0 24 0.675 24 1.5V22.5C24 23.325 23.325 24 22.5 24H1.5C0.675 24 0 23.325 0 22.5Z" fill="#2D327D"/><path d="M3.41098 21H20.588C20.858 21 21.041 20.722 20.932 20.475C19.983 18.313 18.272 16.561 16.139 15.559C16.03 15.508 15.902 15.516 15.797 15.574C14.685 16.19 13.386 16.545 11.999 16.545C10.612 16.545 9.31298 16.19 8.20098 15.574C8.09498 15.515 7.96798 15.507 7.85898 15.559C5.72598 16.561 4.01498 18.313 3.06598 20.475C2.95898 20.722 3.14098 21 3.41098 21Z" fill="white"/><path d="M21 6C21 4.343 19.657 3 18 3C17.023 3 16.155 3.468 15.607 4.191C14.557 3.598 13.322 3.256 12 3.256C10.678 3.256 9.443 3.598 8.393 4.191C7.845 3.468 6.977 3 6 3C4.343 3 3 4.343 3 6C3 7.354 3.897 8.498 5.13 8.871C5.097 9.125 5.079 9.383 5.079 9.645C5.079 13.174 8.177 16.034 12 16.034C15.822 16.034 18.921 13.174 18.921 9.645C18.921 9.383 18.904 9.125 18.87 8.872C20.102 8.498 21 7.354 21 6ZM9.063 10.974C8.623 10.974 8.266 10.617 8.266 10.177C8.266 9.737 8.623 9.38 9.063 9.38C9.503 9.38 9.86 9.736 9.86 10.176C9.86 10.617 9.503 10.974 9.063 10.974ZM12.748 14.025C12.47 14.025 12.204 13.961 12 13.847C11.796 13.961 11.53 14.025 11.252 14.025C10.615 14.025 10.12 13.559 10.12 13.159C10.12 13.067 10.194 12.993 10.286 12.993C10.378 12.993 10.452 13.067 10.452 13.159C10.452 13.369 10.795 13.693 11.252 13.693C11.47 13.693 11.681 13.644 11.834 13.559V12.597C11.4 12.541 11.07 12.27 11.07 11.944C11.07 11.577 11.486 11.28 12 11.28C12.514 11.28 12.93 11.577 12.93 11.944C12.93 12.27 12.6 12.541 12.166 12.597V13.559C12.319 13.644 12.53 13.693 12.748 13.693C13.204 13.693 13.548 13.369 13.548 13.159C13.548 13.067 13.622 12.993 13.714 12.993C13.806 12.993 13.88 13.067 13.88 13.159C13.88 13.56 13.385 14.025 12.748 14.025ZM14.937 10.974C14.497 10.974 14.14 10.617 14.14 10.177C14.14 9.737 14.497 9.38 14.937 9.38C15.377 9.38 15.734 9.737 15.734 10.177C15.734 10.617 15.377 10.974 14.937 10.974Z" fill="white"/></svg>
